X:1
T:The Strip Polka
M:4/4
L:1/8
K:C
 EF| G2 G- G/2 A/2- GE FG| A2 A- A/2^G/2 A2 A_B| =B2 B- B/2_B/2 =BG AB|\
 c2 d2 e2 EF| G2 G- G/2A/2 GE FG| A2 A- A/2^G/2 A2 A_B| =B2 B- B/2B/2 BG AB|\
 c6 ee| c2 cc A2 AA| FF F F- F2 dd| B2 BB G2 AG| EE E E- E2 ee| c2 cc AA AG|\
 FF F F- F2 dd| B2- BA GF ED| C6 EF| G2 G- G/2A/2 GE FG| A2 A- A/2^G/2 A2 GA|\
 =B2 B- B/2_B/2=B-G AB| c2 d2 e2 EF| G2 G- G/2A/2 GE FG| A2 A- A/2^G/2 A2 A_B|\
 =B2 BB BG AB| c6 z2| G4 A4| GA G F3 z2| G4 A4| GA G E3 z2| G4 A4|\
 GA G_G F4| B2 c2 d2 B2| c6||
